X:1
T:Psalm 86
T:V 9
L:1/4
M:14/4
I:linebreak $
K:C
V:1 treble nm="Pipe Organ" snm="Org."
V:1
 G2 G2 F G A _B A2 G3 z |$ G2 G2 F G A _B A2 G3 z |$[M:12/4] _B2 A2 G B A G F3 z |$ %3
w: Doen 'n te- ken my ten goe- de,|dat my ha- ters in hul woe- de,|kan aan- skou hoe U my red|
 F2 E2 D G G ^F G3 z |] %4
w: en my troos op my ge- bed.|

